X:68
T:Jig. RDO.68
T:?aka
M:6/8
L:1.8
Q:3/8=110
S:Robert D. Owen MS,Indiana,1826.
R:.Jig
O:Indiana,USA
A:New Harmony
Z:vmp.Chris Partington
K:G
d|g2b a/b/c’a|b2g afd|g2b (a/b/)c’a|(b/c’/)d’b g2:|!
|:c|B2dg2d|(e/f/)ge dBG|B2dg2d|(e/f/)ged2:|!
|:B|c2e dBG|(A/B/)cA B2G|c2e dBG|(A/B/)cAG2:|

